X:1
T:Broomfield Wager
M:2/4
L:1/8
K:C
 C| D3/2- E/2 F3/2 G/2| A3/2- c/2 B3/2 G/2| A3/2 A/2 G3/2 E/2| D3 D|\
 A3/2- G/2 A3/2 c/2| d2 B3/2 G/2| A3 G/2G/2| A3/2 G/2 A3/2- c/2| d2 Bd|\
 cAG-E| C2 DE|F-D cB| A3/2- G/2 EE| D3||
